images/calendar-before.svg

<svg width="77" height="72" viewBox="0 0 77 72" fill="none" xmlns="http://www.w3.org/2000/svg">
<path d="M75.4742 24.928L72.255 27.9038H4.82365L1.52588 24.928V17.8016C1.52588 16.1764 2.84341 14.8588 4.46864 14.8588H72.5315C74.1567 14.8588 75.4742 16.1764 75.4742 17.8016V24.928Z" fill="#FFBD54"/>
<path d="M72.5312 14.8588H69.0356C70.6609 14.8588 71.9784 16.1764 71.9784 17.8016V27.9038L75.4739 24.928V17.8016C75.4739 16.1764 74.1565 14.8588 72.5312 14.8588Z" fill="#D99830"/>
<path d="M75.4742 24.928H1.52588V67.805C1.52588 69.4302 2.84341 70.7477 4.46864 70.7477H72.5315C74.1567 70.7477 75.4742 69.4302 75.4742 67.805V24.928Z" fill="#F4FBFF"/>
<path d="M71.9787 24.928H1.52588V28.1614H68.2267C70.2989 28.1614 71.9787 29.8412 71.9787 31.9134V67.8051C71.9787 69.4303 70.6612 70.7479 69.036 70.7479H72.5315C74.1567 70.7479 75.4742 69.4303 75.4742 67.8051V24.928H71.9787Z" fill="#DAF1F4"/>
<path d="M38.4999 6.54597C40.0014 6.54597 41.2186 5.32878 41.2186 3.82729C41.2186 2.3258 40.0014 1.10861 38.4999 1.10861C36.9984 1.10861 35.7812 2.3258 35.7812 3.82729C35.7812 5.32878 36.9984 6.54597 38.4999 6.54597Z" fill="#365E7D"/>
<path d="M51.5321 18.7775H25.4682C24.8518 18.7775 24.3523 19.277 24.3523 19.8934C24.3523 20.5099 24.8518 21.0094 25.4682 21.0094H51.5321C52.1485 21.0094 52.648 20.5099 52.648 19.8934C52.648 19.277 52.1484 18.7775 51.5321 18.7775Z" fill="black"/>
<path d="M11.9787 31.3819H7.45747C6.84104 31.3819 6.34155 31.8814 6.34155 32.4978C6.34155 33.1143 6.84104 33.6138 7.45747 33.6138H11.9787C12.5952 33.6138 13.0947 33.1143 13.0947 32.4978C13.0947 31.8814 12.595 31.3819 11.9787 31.3819Z" fill="black"/>
<path d="M21.573 31.3819H17.0517C16.4353 31.3819 15.9358 31.8814 15.9358 32.4978C15.9358 33.1143 16.4353 33.6138 17.0517 33.6138H21.573C22.1894 33.6138 22.6889 33.1143 22.6889 32.4978C22.6889 31.8814 22.1894 31.3819 21.573 31.3819Z" fill="black"/>
<path d="M31.1667 31.3819H26.6455C26.029 31.3819 25.5295 31.8814 25.5295 32.4978C25.5295 33.1143 26.029 33.6138 26.6455 33.6138H31.1667C31.7832 33.6138 32.2826 33.1143 32.2826 32.4978C32.2826 31.8814 31.783 31.3819 31.1667 31.3819Z" fill="black"/>
<path d="M40.7607 31.3819H36.2395C35.623 31.3819 35.1235 31.8814 35.1235 32.4978C35.1235 33.1143 35.623 33.6138 36.2395 33.6138H40.7607C41.3772 33.6138 41.8766 33.1143 41.8766 32.4978C41.8766 31.8814 41.3772 31.3819 40.7607 31.3819Z" fill="black"/>
<path d="M50.3547 31.3819H45.8335C45.217 31.3819 44.7175 31.8814 44.7175 32.4978C44.7175 33.1143 45.217 33.6138 45.8335 33.6138H50.3547C50.9712 33.6138 51.4706 33.1143 51.4706 32.4978C51.4706 31.8814 50.971 31.3819 50.3547 31.3819Z" fill="black"/>
<path d="M59.9485 31.3819H55.4272C54.8108 31.3819 54.3113 31.8814 54.3113 32.4978C54.3113 33.1143 54.8108 33.6138 55.4272 33.6138H59.9485C60.5649 33.6138 61.0644 33.1143 61.0644 32.4978C61.0644 31.8814 60.5649 31.3819 59.9485 31.3819Z" fill="black"/>
<path d="M69.5425 31.3819H65.0212C64.4048 31.3819 63.9053 31.8814 63.9053 32.4978C63.9053 33.1143 64.4048 33.6138 65.0212 33.6138H69.5425C70.1589 33.6138 70.6584 33.1143 70.6584 32.4978C70.6584 31.8814 70.1587 31.3819 69.5425 31.3819Z" fill="black"/>
<path d="M11.9787 38.9519H7.45747C6.84104 38.9519 6.34155 39.4514 6.34155 40.0678C6.34155 40.6842 6.84104 41.1837 7.45747 41.1837H11.9787C12.5952 41.1837 13.0947 40.6842 13.0947 40.0678C13.0947 39.4514 12.595 38.9519 11.9787 38.9519Z" fill="black"/>
<path d="M21.573 38.9519H17.0517C16.4353 38.9519 15.9358 39.4514 15.9358 40.0678C15.9358 40.6842 16.4353 41.1837 17.0517 41.1837H21.573C22.1894 41.1837 22.6889 40.6842 22.6889 40.0678C22.6889 39.4514 22.1894 38.9519 21.573 38.9519Z" fill="black"/>
<path d="M31.1667 38.9519H26.6455C26.029 38.9519 25.5295 39.4514 25.5295 40.0678C25.5295 40.6842 26.029 41.1837 26.6455 41.1837H31.1667C31.7832 41.1837 32.2826 40.6842 32.2826 40.0678C32.2826 39.4514 31.783 38.9519 31.1667 38.9519Z" fill="black"/>
<path d="M40.7607 38.9519H36.2395C35.623 38.9519 35.1235 39.4514 35.1235 40.0678C35.1235 40.6842 35.623 41.1837 36.2395 41.1837H40.7607C41.3772 41.1837 41.8766 40.6842 41.8766 40.0678C41.8766 39.4514 41.3772 38.9519 40.7607 38.9519Z" fill="black"/>
<path d="M50.3547 38.9519H45.8335C45.217 38.9519 44.7175 39.4514 44.7175 40.0678C44.7175 40.6842 45.217 41.1837 45.8335 41.1837H50.3547C50.9712 41.1837 51.4706 40.6842 51.4706 40.0678C51.4706 39.4514 50.971 38.9519 50.3547 38.9519Z" fill="black"/>
<path d="M59.9485 38.9519H55.4272C54.8108 38.9519 54.3113 39.4514 54.3113 40.0678C54.3113 40.6842 54.8108 41.1837 55.4272 41.1837H59.9485C60.5649 41.1837 61.0644 40.6842 61.0644 40.0678C61.0644 39.4514 60.5649 38.9519 59.9485 38.9519Z" fill="black"/>
<path d="M69.5425 38.9519H65.0212C64.4048 38.9519 63.9053 39.4514 63.9053 40.0678C63.9053 40.6842 64.4048 41.1837 65.0212 41.1837H69.5425C70.1589 41.1837 70.6584 40.6842 70.6584 40.0678C70.6584 39.4514 70.1587 38.9519 69.5425 38.9519Z" fill="black"/>
<path d="M11.9787 46.5218H7.45747C6.84104 46.5218 6.34155 47.0213 6.34155 47.6378C6.34155 48.2542 6.84104 48.7537 7.45747 48.7537H11.9787C12.5952 48.7537 13.0947 48.2542 13.0947 47.6378C13.0947 47.0213 12.595 46.5218 11.9787 46.5218Z" fill="black"/>
<path d="M21.573 46.5218H17.0517C16.4353 46.5218 15.9358 47.0213 15.9358 47.6378C15.9358 48.2542 16.4353 48.7537 17.0517 48.7537H21.573C22.1894 48.7537 22.6889 48.2542 22.6889 47.6378C22.6889 47.0213 22.1894 46.5218 21.573 46.5218Z" fill="black"/>
<path d="M31.1667 46.5218H26.6455C26.029 46.5218 25.5295 47.0213 25.5295 47.6378C25.5295 48.2542 26.029 48.7537 26.6455 48.7537H31.1667C31.7832 48.7537 32.2826 48.2542 32.2826 47.6378C32.2826 47.0213 31.783 46.5218 31.1667 46.5218Z" fill="black"/>
<path d="M40.7607 46.5218H36.2395C35.623 46.5218 35.1235 47.0213 35.1235 47.6378C35.1235 48.2542 35.623 48.7537 36.2395 48.7537H40.7607C41.3772 48.7537 41.8766 48.2542 41.8766 47.6378C41.8766 47.0213 41.3772 46.5218 40.7607 46.5218Z" fill="black"/>
<path d="M50.3547 46.5218H45.8335C45.217 46.5218 44.7175 47.0213 44.7175 47.6378C44.7175 48.2542 45.217 48.7537 45.8335 48.7537H50.3547C50.9712 48.7537 51.4706 48.2542 51.4706 47.6378C51.4706 47.0213 50.971 46.5218 50.3547 46.5218Z" fill="black"/>
<path d="M59.9485 46.5218H55.4272C54.8108 46.5218 54.3113 47.0213 54.3113 47.6378C54.3113 48.2542 54.8108 48.7537 55.4272 48.7537H59.9485C60.5649 48.7537 61.0644 48.2542 61.0644 47.6378C61.0644 47.0213 60.5649 46.5218 59.9485 46.5218Z" fill="black"/>
<path d="M69.5425 46.5218H65.0212C64.4048 46.5218 63.9053 47.0213 63.9053 47.6378C63.9053 48.2542 64.4048 48.7537 65.0212 48.7537H69.5425C70.1589 48.7537 70.6584 48.2542 70.6584 47.6378C70.6584 47.0213 70.1587 46.5218 69.5425 46.5218Z" fill="black"/>
<path d="M11.9787 54.0917H7.45747C6.84104 54.0917 6.34155 54.5911 6.34155 55.2076C6.34155 55.824 6.84104 56.3235 7.45747 56.3235H11.9787C12.5952 56.3235 13.0947 55.824 13.0947 55.2076C13.0947 54.5911 12.595 54.0917 11.9787 54.0917Z" fill="black"/>
<path d="M21.573 54.0917H17.0517C16.4353 54.0917 15.9358 54.5911 15.9358 55.2076C15.9358 55.824 16.4353 56.3235 17.0517 56.3235H21.573C22.1894 56.3235 22.6889 55.824 22.6889 55.2076C22.6889 54.5911 22.1894 54.0917 21.573 54.0917Z" fill="black"/>
<path d="M31.1667 54.0917H26.6455C26.029 54.0917 25.5295 54.5911 25.5295 55.2076C25.5295 55.824 26.029 56.3235 26.6455 56.3235H31.1667C31.7832 56.3235 32.2826 55.824 32.2826 55.2076C32.2826 54.5911 31.783 54.0917 31.1667 54.0917Z" fill="black"/>
<path d="M40.7607 54.0917H36.2395C35.623 54.0917 35.1235 54.5911 35.1235 55.2076C35.1235 55.824 35.623 56.3235 36.2395 56.3235H40.7607C41.3772 56.3235 41.8766 55.824 41.8766 55.2076C41.8766 54.5911 41.3772 54.0917 40.7607 54.0917Z" fill="black"/>
<path d="M50.3547 54.0917H45.8335C45.217 54.0917 44.7175 54.5911 44.7175 55.2076C44.7175 55.824 45.217 56.3235 45.8335 56.3235H50.3547C50.9712 56.3235 51.4706 55.824 51.4706 55.2076C51.4706 54.5911 50.971 54.0917 50.3547 54.0917Z" fill="black"/>
<path d="M59.9485 54.0917H55.4272C54.8108 54.0917 54.3113 54.5911 54.3113 55.2076C54.3113 55.824 54.8108 56.3235 55.4272 56.3235H59.9485C60.5649 56.3235 61.0644 55.824 61.0644 55.2076C61.0644 54.5911 60.5649 54.0917 59.9485 54.0917Z" fill="black"/>
<path d="M69.5425 54.0917H65.0212C64.4048 54.0917 63.9053 54.5911 63.9053 55.2076C63.9053 55.824 64.4048 56.3235 65.0212 56.3235H69.5425C70.1589 56.3235 70.6584 55.824 70.6584 55.2076C70.6584 54.5911 70.1587 54.0917 69.5425 54.0917Z" fill="black"/>
<path d="M11.9787 61.6616H7.45747C6.84104 61.6616 6.34155 62.1611 6.34155 62.7775C6.34155 63.394 6.84104 63.8935 7.45747 63.8935H11.9787C12.5952 63.8935 13.0947 63.394 13.0947 62.7775C13.0947 62.1611 12.595 61.6616 11.9787 61.6616Z" fill="black"/>
<path d="M21.573 61.6616H17.0517C16.4353 61.6616 15.9358 62.1611 15.9358 62.7775C15.9358 63.394 16.4353 63.8935 17.0517 63.8935H21.573C22.1894 63.8935 22.6889 63.394 22.6889 62.7775C22.6889 62.1611 22.1894 61.6616 21.573 61.6616Z" fill="black"/>
<path d="M31.1667 61.6616H26.6455C26.029 61.6616 25.5295 62.1611 25.5295 62.7775C25.5295 63.394 26.029 63.8935 26.6455 63.8935H31.1667C31.7832 63.8935 32.2826 63.394 32.2826 62.7775C32.2826 62.1611 31.783 61.6616 31.1667 61.6616Z" fill="black"/>
<path d="M72.5316 13.7429H67.987C67.7983 13.5892 69.4189 14.4378 42.2422 0.873824C39.959 -0.264564 37.1481 -0.317682 34.758 0.873824C7.56996 14.4434 9.20188 13.5892 9.01322 13.7429H4.46859C2.23065 13.7429 0.409912 15.5637 0.409912 17.8016V67.805C0.409912 70.0429 2.23065 71.8636 4.46859 71.8636H72.5314C74.7694 71.8636 76.59 70.0429 76.59 67.805V62.6691C76.59 62.0526 76.0905 61.5531 75.474 61.5531C74.8576 61.5531 74.3581 62.0526 74.3581 62.6691V67.805C74.3581 68.8124 73.5386 69.6318 72.5314 69.6318H4.46859C3.46114 69.6318 2.64175 68.8123 2.64175 67.805V26.0439H74.3583V58.2073C74.3583 58.8237 74.8578 59.3232 75.4742 59.3232C76.0906 59.3232 76.5901 58.8237 76.5901 58.2073V17.8016C76.5901 15.5637 74.7695 13.7429 72.5316 13.7429ZM40.1028 3.82729C40.1028 4.7111 39.3838 5.43005 38.5 5.43005C37.6162 5.43005 36.8973 4.7111 36.8973 3.82729C36.8973 2.99898 37.5289 2.31544 38.3357 2.23287C38.4453 2.23004 38.5548 2.23004 38.6644 2.23287C39.4713 2.31544 40.1028 2.99884 40.1028 3.82729ZM2.64175 17.8016C2.64175 16.7943 3.46129 15.9749 4.46859 15.9749H21.681C22.2974 15.9749 22.7969 15.4754 22.7969 14.859C22.7969 14.2426 22.2974 13.7431 21.681 13.7431H13.9518L34.6895 3.40191C34.4352 5.69475 36.2386 7.6619 38.5 7.6619C40.7637 7.6619 42.5645 5.69222 42.3105 3.40191L63.0482 13.7429H26.1426C25.5262 13.7429 25.0267 14.2424 25.0267 14.8588C25.0267 15.4753 25.5262 15.9748 26.1426 15.9748H72.5314C73.5387 15.9748 74.3581 16.7943 74.3581 17.8015V23.8119H2.64175V17.8016Z" fill="black"/>
</svg>

<svg xmlns="http://www.w3.org/2000/svg" width="77" height="72" fill="none"><path fill="#FFBD54" d="m75.474 24.928-3.219 2.976H4.824l-3.298-2.976v-7.126a2.943 2.943 0 0 1 2.943-2.943h68.063a2.943 2.943 0 0 1 2.942 2.943v7.126Z"/><path fill="#D99830" d="M72.531 14.859h-3.495a2.943 2.943 0 0 1 2.942 2.943v10.102l3.496-2.976v-7.126a2.943 2.943 0 0 0-2.943-2.943Z"/><path fill="#F4FBFF" d="M75.474 24.928H1.526v42.877a2.943 2.943 0 0 0 2.943 2.943h68.063a2.943 2.943 0 0 0 2.942-2.943V24.928Z"/><path fill="#DAF1F4" d="M71.979 24.928H1.526v3.233h66.7a3.752 3.752 0 0 1 3.753 3.752v35.892a2.943 2.943 0 0 1-2.943 2.943h3.495a2.943 2.943 0 0 0 2.943-2.943V24.928H71.98Z"/><path fill="#365E7D" d="M38.5 6.546a2.719 2.719 0 1 0 0-5.437 2.719 2.719 0 0 0 0 5.437Z"/><path fill="#000" d="M51.532 18.777H25.468a1.116 1.116 0 1 0 0 2.232h26.064a1.116 1.116 0 1 0 0-2.232ZM11.979 31.382H7.457a1.116 1.116 0 1 0 0 2.232h4.522a1.116 1.116 0 1 0 0-2.232ZM21.573 31.382h-4.521a1.116 1.116 0 1 0 0 2.232h4.521a1.116 1.116 0 1 0 0-2.232ZM31.167 31.382h-4.522a1.116 1.116 0 1 0 0 2.232h4.522a1.116 1.116 0 1 0 0-2.232ZM40.76 31.382h-4.52a1.116 1.116 0 1 0 0 2.232h4.52a1.116 1.116 0 1 0 0-2.232ZM50.355 31.382h-4.521a1.116 1.116 0 1 0 0 2.232h4.52a1.116 1.116 0 1 0 0-2.232ZM59.949 31.382h-4.522a1.116 1.116 0 1 0 0 2.232h4.522a1.116 1.116 0 1 0 0-2.232ZM69.543 31.382H65.02a1.116 1.116 0 1 0 0 2.232h4.522a1.116 1.116 0 1 0 0-2.232ZM11.979 38.952H7.457a1.116 1.116 0 1 0 0 2.232h4.522a1.116 1.116 0 1 0 0-2.232ZM21.573 38.952h-4.521a1.116 1.116 0 1 0 0 2.232h4.521a1.116 1.116 0 1 0 0-2.232ZM31.167 38.952h-4.522a1.116 1.116 0 1 0 0 2.232h4.522a1.116 1.116 0 1 0 0-2.232ZM40.76 38.952h-4.52a1.116 1.116 0 1 0 0 2.232h4.52a1.116 1.116 0 1 0 0-2.232ZM50.355 38.952h-4.521a1.116 1.116 0 1 0 0 2.232h4.52a1.116 1.116 0 1 0 0-2.232ZM59.949 38.952h-4.522a1.116 1.116 0 1 0 0 2.232h4.522a1.116 1.116 0 1 0 0-2.232ZM69.543 38.952H65.02a1.116 1.116 0 1 0 0 2.232h4.522a1.116 1.116 0 1 0 0-2.232ZM11.979 46.522H7.457a1.116 1.116 0 1 0 0 2.232h4.522a1.116 1.116 0 1 0 0-2.232ZM21.573 46.522h-4.521a1.116 1.116 0 1 0 0 2.232h4.521a1.116 1.116 0 1 0 0-2.232ZM31.167 46.522h-4.522a1.116 1.116 0 1 0 0 2.232h4.522a1.116 1.116 0 1 0 0-2.232ZM40.76 46.522h-4.52a1.116 1.116 0 1 0 0 2.232h4.52a1.116 1.116 0 1 0 0-2.232ZM50.355 46.522h-4.521a1.116 1.116 0 1 0 0 2.232h4.52a1.116 1.116 0 1 0 0-2.232ZM59.949 46.522h-4.522a1.116 1.116 0 1 0 0 2.232h4.522a1.116 1.116 0 1 0 0-2.232ZM69.543 46.522H65.02a1.116 1.116 0 1 0 0 2.232h4.522a1.116 1.116 0 1 0 0-2.232ZM11.979 54.092H7.457a1.116 1.116 0 1 0 0 2.232h4.522a1.116 1.116 0 1 0 0-2.232ZM21.573 54.092h-4.521a1.116 1.116 0 1 0 0 2.232h4.521a1.116 1.116 0 1 0 0-2.232ZM31.167 54.092h-4.522a1.116 1.116 0 1 0 0 2.232h4.522a1.116 1.116 0 1 0 0-2.232ZM40.76 54.092h-4.52a1.116 1.116 0 1 0 0 2.232h4.52a1.116 1.116 0 1 0 0-2.232ZM50.355 54.092h-4.521a1.116 1.116 0 1 0 0 2.232h4.52a1.116 1.116 0 1 0 0-2.232ZM59.949 54.092h-4.522a1.116 1.116 0 1 0 0 2.232h4.522a1.116 1.116 0 1 0 0-2.232ZM69.543 54.092H65.02a1.116 1.116 0 1 0 0 2.232h4.522a1.116 1.116 0 1 0 0-2.232ZM11.979 61.662H7.457a1.116 1.116 0 1 0 0 2.232h4.522a1.116 1.116 0 1 0 0-2.232ZM21.573 61.662h-4.521a1.116 1.116 0 1 0 0 2.232h4.521a1.116 1.116 0 1 0 0-2.232ZM31.167 61.662h-4.522a1.116 1.116 0 1 0 0 2.232h4.522a1.116 1.116 0 1 0 0-2.232Z"/><path fill="#000" d="M72.532 13.743h-4.545c-.189-.154 1.432.695-25.745-12.87a8.45 8.45 0 0 0-7.484 0C7.57 14.444 9.202 13.59 9.013 13.744H4.47a4.063 4.063 0 0 0-4.06 4.059v50.003a4.063 4.063 0 0 0 4.06 4.059H72.53a4.063 4.063 0 0 0 4.059-4.059v-5.136a1.116 1.116 0 1 0-2.232 0v5.136c0 1.007-.82 1.827-1.827 1.827H4.47a1.829 1.829 0 0 1-1.827-1.827V26.044h71.716v32.163a1.116 1.116 0 1 0 2.232 0V17.802a4.063 4.063 0 0 0-4.058-4.06Zm-32.43-9.916c0 .884-.718 1.603-1.602 1.603a1.604 1.604 0 0 1-1.603-1.603c0-.828.632-1.512 1.439-1.594.11-.003.219-.003.328 0a1.605 1.605 0 0 1 1.439 1.594ZM2.643 17.802c0-1.008.82-1.827 1.827-1.827H21.68a1.116 1.116 0 1 0 0-2.232h-7.73L34.69 3.402a3.837 3.837 0 0 0 3.81 4.26 3.838 3.838 0 0 0 3.81-4.26l20.738 10.34H26.143a1.116 1.116 0 1 0 0 2.233H72.53c1.008 0 1.827.82 1.827 1.827v6.01H2.642v-6.01Z"/></svg>
